X: 39104
T: Sweeper's
R: reel
M: 4/4
K: Gmajor
GGGB gage|aege e<efg|GGGB gagf|eAdB AB e2:|
GGGB dedB|gedB e<efg|GGGB efeB|dGdB AB e2|
GGGB dedB|gedB e<efg|GGGB dBaf|gedB e<efg||

